X:260
T:Sante Fe
C:Shena Tschofen
S:Shena Tschofen
R:jig
M:6/8
L:1/8
K:Dmix
dce dcA | GEc AGE | DED AGD | EDE c3 |
dce dcA | GEc AGE | DED AGE | DED D3 ::
(3ABc A D2A | (3ABc A dce | dce dcA | EFG A3 |
(3ABc A D2A | (3ABc A dce | dge dge |1 dcA dcA :|2 dge A3 |]
